public/images/icons/32x32/nouveautes_32_white.svg

<svg height="32" viewBox="0 0 32 32" width="32" xmlns="http://www.w3.org/2000/svg"><g fill="#fff" fill-rule="evenodd" transform="translate(4 4)"><path d="m11.534528 4.8304c-3.821056 0-6.926528 3.105472-6.926528 6.926528 0 3.816 3.105472 6.926208 6.926528 6.926208 3.820736 0 6.926208-3.110208 6.926208-6.926208 0-3.821056-3.105472-6.926528-6.926208-6.926528zm0 12.676736c-3.168 0-5.750528-2.577472-5.750528-5.750208 0-3.168 2.577472-5.750528 5.750528-5.750528 3.172736 0 5.750208 2.582528 5.750208 5.750528s-2.582208 5.750208-5.750208 5.750208z"/><path d="m22.233472 12.131136c-.196736-.268736-.201472-.638208-.004736-.912l.408-.580736c.321792-.456.436736-1.032.307264-1.579264s-.484736-1.012736-.979264-1.276736l-.624-.336c-.297472-.158528-.456-.484736-.403264-.816l.12-.700736c.091264-.552-.057472-1.118528-.408-1.555264-.354944-.436736-.878208-.700736-1.434944-.724736l-.710528-.028736c-.336-.014528-.624-.24-.715264-.561792l-.206208-.676736c-.24-.830528-1.013056-1.411264-1.881792-1.411264-.264 0-.528.052736-.772736.158528l-.652736.278208c-.302528.129792-.672.048-.888-.196736l-.475264-.528c-.369472-.412736-.902528-.652736-1.454528-.652736-.566208 0-1.104.244736-1.478208.672l-.460736.537472c-.216.249792-.581056.336-.888.211264l-.657792-.268736c-.24-.096-.489472-.148736-.744-.148736-.878208 0-1.656.590208-1.886208 1.44l-.187264.686208c-.086528.321792-.374528.552-.710528.571264l-.705472.043264c-.556736.028736-1.08.302528-1.425792.744-.345472.441472-.484736 1.012736-.384 1.56l.129792.696c.062208.331264-.096.662528-.388736.825472l-.619264.345792c-.489792.273472-.84.744-.96 1.291264-.12.546944 0 1.122944.331264 1.574208l.417472.571264c.196736.268736.201472.638528.004736.912l-.408.580736c-.321472.456-.436736 1.032-.307264 1.579264.129792.547264.485056 1.012736.979264 1.276736l.624.336c.297792.158528.456.484736.403264.816l-.12.700736c-.091264.552.057472 1.118528.408 1.555264.355264.436736.878528.700736 1.435264.724736l.710208.029056c.336.014208.624.24.715264.561472l.196736.681472c.24.830528 1.013056 1.411264 1.881792 1.411264.264 0 .528-.052736.772736-.158208l.652736-.278528c.302528-.129472.672-.048.888.196736l.475264.528c.369472.412736.902528.652736 1.454528.652736.566208 0 1.104-.244736 1.478208-.672l.465792-.537472c.216-.249472.580736-.336.888-.211264l.657472.268736c.24.096.489472.149056.744.149056.878528 0 1.656-.590528 1.886528-1.44l.186944-.686528c.086528-.321472.374528-.552.710528-.571264l.710528-.043264c.561472-.033472 1.08-.302208 1.425472-.744.345472-.441472.484736-1.008.384-1.56l-.129472-.696c-.062528-.330944.096-.662208.388736-.825472l.619264-.345472c.489472-.273792.84-.744.96-1.291264s0-1.123264-.331264-1.574528zm-.398208 1.896c-.048.220736-.187264.403264-.384.513792l-.619264.345472c-.734528.408-1.128 1.238528-.974528 2.064l.129792.696c.043264.225472-.014528.446528-.153792.624-.138944.177472-.340736.283264-.570944.297472l-.705792.043264c-.84.048-1.555264.624-1.776 1.435264l-.187264.681472c-.090944.341056-.402944.576-.753472.576-.100736 0-.201472-.018944-.297472-.057472l-.657792-.268736c-.24-.096-.489472-.148736-.744-.148736-.566208 0-1.104.244736-1.478208.672l-.465792.532736c-.148736.172736-.36.268736-.590208.268736-.225792 0-.432-.091264-.581056-.259264l-.474944-.528c-.369792-.412736-.902528-.652736-1.459264-.652736-.268736 0-.528.052736-.772736.158528l-.653056.278208c-.100736.043264-.201472.062528-.306944.062528-.345792 0-.653056-.230528-.749056-.561792l-.196736-.681472c-.235264-.806528-.955264-1.372736-1.795264-1.411264l-.710208-.028736c-.225792-.009472-.432-.110528-.571264-.288-.144-.177472-.201472-.398528-.163264-.619264l.12-.700736c.139264-.830528-.264-1.651264-1.008-2.049472l-.624-.336c-.201472-.105792-.340736-.288-.393472-.509056-.052736-.220736-.009792-.446208.124736-.628736l.408-.580736c.484736-.686528.48-1.603264-.019264-2.284736l-.417472-.571264c-.134528-.182528-.182528-.408-.129792-.628736.048-.220736.187264-.403264.384-.513792l.619264-.345472c.734528-.408 1.128-1.238528.974528-2.064l-.124736-.691264c-.043264-.225472.014208-.446208.153472-.624.139264-.177472.340736-.283264.571264-.297472l.705472-.043264c.84-.048 1.550528-.624 1.776-1.435264l.187264-.686208c.091264-.341056.403264-.576.753472-.576.101056 0 .201792.018944.297792.057472l.657472.268736c.24.096.489792.148736.744.148736.566528 0 1.104-.244736 1.478528-.672l.465472-.532736c.148736-.172736.36-.268736.590528-.268736.225472 0 .432.091264.580736.259264l.475264.528c.369472.412736.902208.652736 1.459264.652736.268736 0 .528-.052736.772736-.158528l.652736-.278208c.100736-.043264.201472-.062528.307264-.062528.345472 0 .652736.230528.748736.561792l.196736.681472c.235264.806528.955264 1.372736 1.795264 1.411264l.710528.028736c.225472.009472.432.110528.576.288s.201472.398528.162944.619264l-.12.700736c-.138944.830528.264 1.651264 1.008 2.049472l.624.336c.201792.105792.341056.288.393792.509056.052736.220736.009472.446208-.12.628736l-.408.580736c-.484736.686528-.48 1.603264.019264 2.284736l.417472.571264c.115264.182528.163264.408.115264.628736z"/><path d="m13.238528 9.851136-2.573056 2.558528-.834944-.84c-.230528-.230528-.6-.230528-.830528 0-.230528.230208-.230528.6-.004736.830208l1.252736 1.257792c.110528.110208.259264.172736.417472.172736.153792 0 .302528-.062528.413056-.172736l2.990208-2.971264c.230528-.230528.230528-.6.004736-.830528-.230208-.230208-.604736-.230208-.834944-.004736z"/></g></svg>

<?xml version="1.0" encoding="UTF-8"?>
<svg width="32px" height="32px" viewBox="0 0 32 32" version="1.1" xmlns="http://www.w3.org/2000/svg" xmlns:xlink="http://www.w3.org/1999/xlink">
    <title>icone/32x32/new_32_white</title>
    <g id="icone/32x32/new_32_white" stroke="none" stroke-width="1" fill="none" fill-rule="evenodd">
        <g id="004-sticker" transform="translate(5.000000, 4.000000)" fill="#FFFFFF">
            <g id="Group-4">
                <path d="M11.534528,4.8304 C7.713472,4.8304 4.608,7.935872 4.608,11.756928 C4.608,15.572928 7.713472,18.683136 11.534528,18.683136 C15.355264,18.683136 18.460736,15.572928 18.460736,11.756928 C18.460736,7.935872 15.355264,4.8304 11.534528,4.8304 Z M11.534528,17.507136 C8.366528,17.507136 5.784,14.929664 5.784,11.756928 C5.784,8.588928 8.361472,6.0064 11.534528,6.0064 C14.707264,6.0064 17.284736,8.588928 17.284736,11.756928 C17.284736,14.924928 14.702528,17.507136 11.534528,17.507136 Z" id="Fill-1"></path>
                <path d="M22.233472,12.131136 C22.036736,11.8624 22.032,11.492928 22.228736,11.219136 L22.636736,10.6384 C22.958528,10.1824 23.073472,9.6064 22.944,9.059136 C22.814528,8.511872 22.459264,8.0464 21.964736,7.7824 L21.340736,7.4464 C21.043264,7.287872 20.884736,6.961664 20.937472,6.6304 L21.057472,5.929664 C21.148736,5.377664 21,4.811136 20.649472,4.3744 C20.294528,3.937664 19.771264,3.673664 19.214528,3.649664 L18.504,3.620928 C18.168,3.6064 17.88,3.380928 17.788736,3.059136 L17.582528,2.3824 C17.342528,1.551872 16.569472,0.971136 15.700736,0.971136 C15.436736,0.971136 15.172736,1.023872 14.928,1.129664 L14.275264,1.407872 C13.972736,1.537664 13.603264,1.455872 13.387264,1.211136 L12.912,0.683136 C12.542528,0.2704 12.009472,0.0304 11.457472,0.0304 C10.891264,0.0304 10.353472,0.275136 9.979264,0.7024 L9.518528,1.239872 C9.302528,1.489664 8.937472,1.575872 8.630528,1.451136 L7.972736,1.1824 C7.732736,1.0864 7.483264,1.033664 7.228736,1.033664 C6.350528,1.033664 5.572736,1.623872 5.342528,2.473664 L5.155264,3.159872 C5.068736,3.481664 4.780736,3.711872 4.444736,3.731136 L3.739264,3.7744 C3.182528,3.803136 2.659264,4.076928 2.313472,4.5184 C1.968,4.959872 1.828736,5.531136 1.929472,6.0784 L2.059264,6.7744 C2.121472,7.105664 1.963264,7.436928 1.670528,7.599872 L1.051264,7.945664 C0.561472,8.219136 0.211264,8.689664 0.091264,9.236928 C-0.028736,9.783872 0.091264,10.359872 0.422528,10.811136 L0.84,11.3824 C1.036736,11.651136 1.041472,12.020928 0.844736,12.2944 L0.436736,12.875136 C0.115264,13.331136 -1.78884685e-14,13.907136 0.129472,14.4544 C0.259264,15.001664 0.614528,15.467136 1.108736,15.731136 L1.732736,16.067136 C2.030528,16.225664 2.188736,16.551872 2.136,16.883136 L2.016,17.583872 C1.924736,18.135872 2.073472,18.7024 2.424,19.139136 C2.779264,19.575872 3.302528,19.839872 3.859264,19.863872 L4.569472,19.892928 C4.905472,19.907136 5.193472,20.132928 5.284736,20.4544 L5.481472,21.135872 C5.721472,21.9664 6.494528,22.547136 7.363264,22.547136 C7.627264,22.547136 7.891264,22.4944 8.136,22.388928 L8.788736,22.1104 C9.091264,21.980928 9.460736,22.0624 9.676736,22.307136 L10.152,22.835136 C10.521472,23.247872 11.054528,23.487872 11.606528,23.487872 C12.172736,23.487872 12.710528,23.243136 13.084736,22.815872 L13.550528,22.2784 C13.766528,22.028928 14.131264,21.9424 14.438528,22.067136 L15.096,22.335872 C15.336,22.431872 15.585472,22.484928 15.84,22.484928 C16.718528,22.484928 17.496,21.8944 17.726528,21.044928 L17.913472,20.3584 C18,20.036928 18.288,19.8064 18.624,19.787136 L19.334528,19.743872 C19.896,19.7104 20.414528,19.441664 20.76,18.999872 C21.105472,18.5584 21.244736,17.991872 21.144,17.439872 L21.014528,16.743872 C20.952,16.412928 21.110528,16.081664 21.403264,15.9184 L22.022528,15.572928 C22.512,15.299136 22.862528,14.828928 22.982528,14.281664 C23.102528,13.7344 22.982528,13.1584 22.651264,12.707136 L22.233472,12.131136 Z M21.835264,14.027136 C21.787264,14.247872 21.648,14.4304 21.451264,14.540928 L20.832,14.8864 C20.097472,15.2944 19.704,16.124928 19.857472,16.9504 L19.987264,17.6464 C20.030528,17.871872 19.972736,18.092928 19.833472,18.2704 C19.694528,18.447872 19.492736,18.553664 19.262528,18.567872 L18.556736,18.611136 C17.716736,18.659136 17.001472,19.235136 16.780736,20.0464 L16.593472,20.727872 C16.502528,21.068928 16.190528,21.303872 15.84,21.303872 C15.739264,21.303872 15.638528,21.284928 15.542528,21.2464 L14.884736,20.977664 C14.644736,20.881664 14.395264,20.828928 14.140736,20.828928 C13.574528,20.828928 13.036736,21.073664 12.662528,21.500928 L12.196736,22.033664 C12.048,22.2064 11.836736,22.3024 11.606528,22.3024 C11.380736,22.3024 11.174528,22.211136 11.025472,22.043136 L10.550528,21.515136 C10.180736,21.1024 9.648,20.8624 9.091264,20.8624 C8.822528,20.8624 8.563264,20.915136 8.318528,21.020928 L7.665472,21.299136 C7.564736,21.3424 7.464,21.361664 7.358528,21.361664 C7.012736,21.361664 6.705472,21.131136 6.609472,20.799872 L6.412736,20.1184 C6.177472,19.311872 5.457472,18.745664 4.617472,18.707136 L3.907264,18.6784 C3.681472,18.668928 3.475264,18.567872 3.336,18.3904 C3.192,18.212928 3.134528,17.991872 3.172736,17.771136 L3.292736,17.0704 C3.432,16.239872 3.028736,15.419136 2.284736,15.020928 L1.660736,14.684928 C1.459264,14.579136 1.32,14.396928 1.267264,14.175872 C1.214528,13.955136 1.257472,13.729664 1.392,13.547136 L1.8,12.9664 C2.284736,12.279872 2.28,11.363136 1.780736,10.681664 L1.363264,10.1104 C1.228736,9.927872 1.180736,9.7024 1.233472,9.481664 C1.281472,9.260928 1.420736,9.0784 1.617472,8.967872 L2.236736,8.6224 C2.971264,8.2144 3.364736,7.383872 3.211264,6.5584 L3.086528,5.867136 C3.043264,5.641664 3.100736,5.420928 3.24,5.243136 C3.379264,5.065664 3.580736,4.959872 3.811264,4.945664 L4.516736,4.9024 C5.356736,4.8544 6.067264,4.2784 6.292736,3.467136 L6.48,2.780928 C6.571264,2.439872 6.883264,2.204928 7.233472,2.204928 C7.334528,2.204928 7.435264,2.223872 7.531264,2.2624 L8.188736,2.531136 C8.428736,2.627136 8.678528,2.679872 8.932736,2.679872 C9.499264,2.679872 10.036736,2.435136 10.411264,2.007872 L10.876736,1.475136 C11.025472,1.3024 11.236736,1.2064 11.467264,1.2064 C11.692736,1.2064 11.899264,1.297664 12.048,1.465664 L12.523264,1.993664 C12.892736,2.4064 13.425472,2.6464 13.982528,2.6464 C14.251264,2.6464 14.510528,2.593664 14.755264,2.487872 L15.408,2.209664 C15.508736,2.1664 15.609472,2.147136 15.715264,2.147136 C16.060736,2.147136 16.368,2.377664 16.464,2.708928 L16.660736,3.3904 C16.896,4.196928 17.616,4.763136 18.456,4.801664 L19.166528,4.8304 C19.392,4.839872 19.598528,4.940928 19.742528,5.1184 C19.886528,5.295872 19.944,5.516928 19.905472,5.737664 L19.785472,6.4384 C19.646528,7.268928 20.049472,8.089664 20.793472,8.487872 L21.417472,8.823872 C21.619264,8.929664 21.758528,9.111872 21.811264,9.332928 C21.864,9.553664 21.820736,9.779136 21.691264,9.961664 L21.283264,10.5424 C20.798528,11.228928 20.803264,12.145664 21.302528,12.827136 L21.72,13.3984 C21.835264,13.580928 21.883264,13.8064 21.835264,14.027136 Z" id="Fill-3"></path>
            </g>
            <path d="M13.238528,9.851136 L10.665472,12.409664 L9.830528,11.569664 C9.6,11.339136 9.230528,11.339136 9,11.569664 C8.769472,11.799872 8.769472,12.169664 8.995264,12.399872 L10.248,13.657664 C10.358528,13.767872 10.507264,13.8304 10.665472,13.8304 C10.819264,13.8304 10.968,13.767872 11.078528,13.657664 L14.068736,10.6864 C14.299264,10.455872 14.299264,10.0864 14.073472,9.855872 C13.843264,9.625664 13.468736,9.625664 13.238528,9.851136 Z" id="Fill-5"></path>
        </g>
    </g>
</svg>
